src/components/sections/images/img_icon_1.svg

<svg width="24" height="24" viewBox="0 0 24 24" fill="none" xmlns="http://www.w3.org/2000/svg">
<path d="M7.99988 7C6.89531 7 5.99988 7.89543 5.99988 9C5.99988 10.1046 6.89531 11 7.99988 11H8.00988C9.11445 11 10.0099 10.1046 10.0099 9C10.0099 7.89543 9.11445 7 8.00988 7H7.99988Z" fill="black"/>
<path fill-rule="evenodd" clip-rule="evenodd" d="M7.03136 2H16.9684C17.8154 1.99999 18.5127 1.99998 19.0786 2.04722C19.665 2.09618 20.2035 2.20128 20.7036 2.4667C21.4766 2.87691 22.0938 3.52928 22.4605 4.32383C22.6977 4.83794 22.7728 5.38146 22.7892 5.96966C22.8049 6.53718 22.7662 7.23335 22.7193 8.07883L22.248 16.5617C22.2056 17.3253 22.1705 17.9572 22.1006 18.4714C22.0278 19.0066 21.9083 19.4962 21.6527 19.953C21.2551 20.6637 20.65 21.2362 19.9183 21.5938C19.448 21.8236 18.9525 21.9158 18.4141 21.9587C17.8967 22 17.264 22 16.4991 22H7.50064C7.16996 22 6.86399 22 6.58136 21.9967C6.51695 22.0019 6.45208 22.001 6.3877 21.9938C6.09406 21.9883 5.82729 21.978 5.58568 21.9587C5.04723 21.9158 4.55178 21.8236 4.08147 21.5938C3.34978 21.2362 2.74467 20.6637 2.34704 19.953C2.09145 19.4962 1.97194 19.0066 1.89918 18.4714C1.82927 17.9571 1.79418 17.3254 1.75177 16.5616L1.28052 8.07921C1.23353 7.23355 1.19483 6.53726 1.21062 5.96966C1.22697 5.38146 1.30204 4.83794 1.53931 4.32383C1.90601 3.52928 2.52314 2.87691 3.29613 2.4667C3.79628 2.20128 4.3348 2.09618 4.92119 2.04722C5.48704 1.99998 6.18441 1.99999 7.03136 2ZM16.4591 20H8.73647L14.6173 13.4273C14.8249 13.1952 14.9402 13.0677 15.0301 12.9826L15.0408 12.9726L15.0519 12.982C15.1465 13.0619 15.2686 13.1829 15.4887 13.4031L20.1376 18.0519C20.1316 18.1037 20.1254 18.1536 20.1188 18.202C20.0626 18.6158 19.9905 18.8278 19.9073 18.9765C19.7085 19.3319 19.406 19.6181 19.0401 19.7969C18.887 19.8717 18.6713 19.9319 18.255 19.9651C17.8266 19.9993 17.2741 20 16.4591 20ZM20.72 8.01079L20.3097 15.3956L16.8796 11.9655C16.6917 11.7776 16.5098 11.5956 16.3436 11.455C16.162 11.3014 15.9299 11.1355 15.6265 11.0425C15.2082 10.9142 14.7594 10.9266 14.3488 11.0779C14.0511 11.1876 13.8286 11.3661 13.6558 11.5296C13.4976 11.6792 13.3261 11.871 13.1489 12.069L6.06711 19.984C5.9517 19.9792 5.84483 19.9731 5.74473 19.9651C5.32844 19.9319 5.11275 19.8717 4.95966 19.7969C4.59381 19.6181 4.29126 19.3319 4.09244 18.9765C4.00924 18.8278 3.9372 18.6158 3.88095 18.202C3.82306 17.7761 3.79167 17.2244 3.74647 16.4108L3.2798 8.01078C3.22987 7.11205 3.19666 6.49947 3.20984 6.02526C3.22272 5.56216 3.27961 5.3258 3.35524 5.16192C3.53859 4.76464 3.84716 4.43846 4.23365 4.23335C4.39308 4.14875 4.62593 4.07883 5.0876 4.04029C5.56035 4.00082 6.17383 4 7.07395 4H16.9258C17.8259 4 18.4394 4.00082 18.9122 4.04029C19.3738 4.07883 19.6067 4.14875 19.7661 4.23335C20.1526 4.43846 20.4612 4.76464 20.6445 5.16192C20.7202 5.3258 20.777 5.56216 20.7899 6.02526C20.8031 6.49947 20.7699 7.11205 20.72 8.01079Z" fill="black"/>
</svg>

<svg width="24" height="24" fill="none" xmlns="http://www.w3.org/2000/svg"><path d="M8 7a2 2 0 1 0 0 4h.01a2 2 0 1 0 0-4H8z" fill="#000"/><path fill-rule="evenodd" clip-rule="evenodd" d="M7.031 2h9.937c.847 0 1.545 0 2.11.047.587.05 1.125.154 1.626.42a4 4 0 0 1 1.756 1.857c.238.514.313 1.057.33 1.646.015.567-.024 1.263-.07 2.109l-.472 8.483c-.042.763-.078 1.395-.147 1.91-.073.535-.193 1.024-.448 1.481a4 4 0 0 1-1.735 1.64c-.47.23-.965.323-1.504.366-.517.041-1.15.041-1.915.041H7.501c-.331 0-.637 0-.92-.003a1.01 1.01 0 0 1-.193-.003c-.294-.006-.56-.016-.802-.035-.539-.043-1.034-.135-1.505-.365a4 4 0 0 1-1.734-1.641c-.256-.457-.375-.946-.448-1.482-.07-.514-.105-1.146-.147-1.91L1.28 8.08c-.047-.845-.086-1.542-.07-2.11.016-.588.091-1.131.328-1.645a4 4 0 0 1 1.757-1.857c.5-.266 1.039-.37 1.625-.42C5.487 2 6.184 2 7.031 2zm9.428 18H8.736l5.881-6.573a8.45 8.45 0 0 1 .413-.444l.01-.01.012.009c.095.08.217.2.437.421l4.649 4.649a7.492 7.492 0 0 1-.02.15c-.055.414-.127.626-.21.774a2 2 0 0 1-.868.82c-.153.076-.369.136-.785.17-.428.033-.98.034-1.796.034zM20.72 8.01l-.41 7.386-3.43-3.43c-.188-.188-.37-.37-.536-.511a2.026 2.026 0 0 0-.718-.412 2 2 0 0 0-1.277.035c-.298.11-.52.288-.693.452-.158.15-.33.341-.507.539l-7.082 7.915a8.488 8.488 0 0 1-.322-.019c-.417-.033-.632-.093-.785-.168a2 2 0 0 1-.868-.82c-.083-.15-.155-.361-.211-.775-.058-.426-.09-.978-.135-1.791l-.466-8.4c-.05-.899-.083-1.512-.07-1.986.013-.463.07-.7.145-.863a2 2 0 0 1 .879-.929c.16-.084.392-.154.854-.193C5.56 4 6.174 4 7.074 4h9.852c.9 0 1.513 0 1.986.04.462.039.695.109.854.193a2 2 0 0 1 .879.929c.075.164.132.4.145.863.013.474-.02 1.087-.07 1.986z" fill="#000"/></svg>
